app/images/icons/money.svg

<svg width="24" height="24" xmlns="http://www.w3.org/2000/svg" fill-rule="evenodd" clip-rule="evenodd"><path d="M21.19 7h2.81v15h-21v-5h-2.81v-15h21v5zm1.81 1h-19v13h19v-13zm-9.5 1c3.036 0 5.5 2.464 5.5 5.5s-2.464 5.5-5.5 5.5-5.5-2.464-5.5-5.5 2.464-5.5 5.5-5.5zm0 1c2.484 0 4.5 2.016 4.5 4.5s-2.016 4.5-4.5 4.5-4.5-2.016-4.5-4.5 2.016-4.5 4.5-4.5zm.5 8h-1v-.804c-.767-.16-1.478-.689-1.478-1.704h1.022c0 .591.326.886.978.886.817 0 1.327-.915-.167-1.439-.768-.27-1.68-.676-1.68-1.693 0-.796.573-1.297 1.325-1.448v-.798h1v.806c.704.161 1.313.673 1.313 1.598h-1.018c0-.788-.727-.776-.815-.776-.55 0-.787.291-.787.622 0 .247.134.497.957.768 1.056.344 1.663.845 1.663 1.746 0 .651-.376 1.288-1.313 1.448v.788zm6.19-11v-4h-19v13h1.81v-9h17.19z"/></svg>

<svg width="24" height="24" xmlns="http://www.w3.org/2000/svg" fill-rule="evenodd" clip-rule="evenodd"><path d="M21.19 7H24v15H3v-5H.19V2h21v5zM23 8H4v13h19V8zm-9.5 1c3.036 0 5.5 2.464 5.5 5.5S16.536 20 13.5 20 8 17.536 8 14.5 10.464 9 13.5 9zm0 1c2.484 0 4.5 2.016 4.5 4.5S15.984 19 13.5 19 9 16.984 9 14.5s2.016-4.5 4.5-4.5zm.5 8h-1v-.804c-.767-.16-1.478-.689-1.478-1.704h1.022c0 .591.326.886.978.886.817 0 1.327-.915-.167-1.439-.768-.27-1.68-.676-1.68-1.693 0-.796.573-1.297 1.325-1.448V11h1v.806c.704.161 1.313.673 1.313 1.598h-1.018c0-.788-.727-.776-.815-.776-.55 0-.787.291-.787.622 0 .247.134.497.957.768 1.056.344 1.663.845 1.663 1.746 0 .651-.376 1.288-1.313 1.448V18zm6.19-11V3h-19v13H3V7h17.19z"/></svg>
